X: 30701
T: Orcadian
R: jig
M: 6/8
K: Dmajor
|:f/g/|aba faf|dfd BdB|ABA d2e|faf e2f/g/|
aba faf|dfd BdB|A2f edc|d3 d2:|
|:d/e/|f2 A fed|g2 B g2 B|ABA d2 e|faf e2 d/e/|
f2 A fed|g2 B g2 B|A2 f edc|d3 d2:|
|:A|dad cac|BgB _Bg_B|ABA d2 e|faf e3|
dad cac|BgB _Bg_B|A2 f edc|d3 d2:|

